; Postprocessed by [ArcWelder](https://github.com/FormerLurker/ArcWelderLib)
; Copyright(C) 2021 - Brad Hochgesang
; Version: 1.2.0-12-g0cb6087, Branch: master, BuildDate: 2022-02-14T16:57:40Z
; resolution=0.05mm
; path_tolerance=5.0%
; max_radius=9999.00mm
; default_xyz_precision=3
; default_e_precision=5
; extrusion_rate_variance=5.0%

; Build Summary
;   Build time: 0 hours 12 minutes 42 seconds
;   Filament length: 1558.1 mm (1.56 m)
;   Layer height: 0.4 mm
;   Plastic volume: 3748.09 mm^3 (37.48 cc)
;   Plastic weight: 46.48 g (0.1 lb)
;   Material cost: £0.7
;   Model height: 30 mm
;   G-Code generated by IceSL 2.4.3
; 
; <IceSL Dec 20 2021 14:22:54>
; add_brim : 	True
; add_raft : 	False
; auto_slow_down : 	True
; auto_spiralize : 	True
; bed_part_offset_x_mm : 	0
; bed_part_offset_y_mm : 	0
; bed_size_x_mm : 	290
; bed_size_y_mm : 	200
; bed_size_z_mm : 	200
; bed_temp_degree_c : 	60
; brim_distance_to_print_mm : 	5
; brim_num_contours : 	5
; button_cover_density_field_0 : 	
; button_distance_density_field_0 : 	
; button_optimize_z_layer_height_mm : 	
; button_overhangs : 	
; button_spiralize : 	
; cavity_brush : 	0
; cavity_num_iterations : 	5
; cavity_tearing_method : 	Cross
; chamber_temp_degree_c : 	0
; continuous_double_height_0 : 	False
; cover_density_crust_mm_0 : 	1
; cover_density_max_density_0 : 	90
; cover_filter_diameter_mm_0 : 	0
; cover_flow_multiplier_0 : 	1
; cover_print_speed_mm_per_sec : 	30
; cover_thickness_bottom_mm_0 : 	0.4
; cover_thickness_mm_0 : 	1.2
; cover_thickness_top_mm_0 : 	0.6
; cycle_gap_mm : 	-1
; distance_density_crust_mm_0 : 	10
; distance_density_max_density_0 : 	90
; e_movement_speed_mm_per_sec : 	20
; enable_active_temperature_control : 	False
; enable_curved_covers_0 : 	False
; enable_different_top_bottom_covers_0 : 	True
; enable_fan : 	True
; enable_fan_first_layer : 	False
; enable_fit_single_path : 	False
; enable_ironing_0 : 	False
; enable_min_layer_time : 	False
; enable_z_lift : 	False
; enable_zigzag_cover_strict_ordering_0 : 	False
; extruder_0 : 	0
; extruder_count : 	1
; extruder_degrees_per_sec_0 : 	2
; extruder_mix_count_0 : 	1
; extruder_mix_ratios_0 : 	(1)
; extruder_purge_volume_mm3 : 	24
; extruder_swap_retract_length_mm : 	6
; extruder_swap_retract_speed_mm_per_sec : 	20
; extruder_swap_zlift_mm : 	1
; extruder_temp_degree_c_0 : 	200
; fan_speed_percent : 	60
; fan_speed_percent_on_bridges : 	100
; filament_diameter_mm_0 : 	1.75
; filament_priming_mm_0 : 	0.5
; fill_tiny_gaps_0 : 	True
; first_layer_print_speed_mm_per_sec : 	20
; first_layer_saved : 	0
; flow_dampener_e_length_mm : 	3
; flow_dampener_path_length_end_mm : 	1
; flow_dampener_path_length_start_mm : 	1
; flow_multiplier_0 : 	0.95
; force_auto_spiralize : 	False
; force_backtrack_0 : 	False
; function_debug : 	False
; gen_cavity : 	False
; gen_shield : 	False
; gen_supports : 	True
; gen_tower : 	False
; idle_extruder_temp_degree_c_0 : 	100
; infill_angle_0 : 	0
; infill_extruder_0 : 	0
; infill_percentage_0 : 	30
; infill_type_0 : 	Default
; infill_type_fallback_0 : 	Default
; ironing_flow_0 : 	0.1
; ironing_line_spacing_mm_0 : 	0.1
; ironing_nb_passes_0 : 	2
; ironing_only_top_0 : 	True
; ironing_speed_mm_per_sec_0 : 	20
; ironing_thickness_mm_0 : 	0.2
; ironing_type_0 : 	Zigzag
; ironing_z_offset_mm_0 : 	0
; is_support_0 : 	False
; kgon_min_angle_0 : 	45
; kgon_norm_alpha_0 : 	0.5
; kgon_x_shrink_0 : 	1
; klipper_accel : 	1500
; labeling_mm_per_pixels_0 : 	0.01
; labeling_x_offset_mm_0 : 	0
; labeling_y_offset_mm_0 : 	0
; material_mixing_enable_optimizer : 	True
; max_backtrack_len_mm_0 : 	10
; micro_mixing_field : 	
; min_layer_time_method : 	Tower
; min_layer_time_sec : 	3
; mixing_ratio_min_threshold : 	0.07
; mixing_shield_speed_multiplier : 	1.5
; mixing_wipe_length_mm : 	0
; nozzle_diameter_mm_0 : 	0.5
; num_shells_0 : 	2
; number_layers_saved : 	0
; output_machine_code : 	Default
; overhang_points : 	
; pa_tune : 	False
; path_priority_bridge : 	1
; path_priority_infill : 	2
; path_priority_perimeter : 	4
; path_priority_shell : 	3
; path_priority_use_default : 	False
; path_width_speed_adjustment_exponent : 	3
; perimeter_print_speed_mm_per_sec : 	40
; pfoam_min_percentage_0 : 	20
; phasor_infill_iso_0 : 	50
; phasor_infill_phi_0 : 	0
; phasor_infill_theta_0 : 	0
; phasor_seed_0 : 	1
; preserve_contour_orientations : 	True
; preserve_zigzag_strict_ordering_0 : 	False
; priming_mm_per_sec_0 : 	30
; print_perimeter_0 : 	True
; print_speed_microlayers_mm_per_sec : 	200
; print_speed_mm_per_sec : 	70
; printer : 	voron1
; process_thin_features : 	True
; raft_extruder : 	0
; raft_layer_height_mm : 	0.3
; raft_layers : 	3
; raft_lines_spacing_mm : 	1
; raft_offset_mm : 	0.2
; raft_speed_multiplier : 	1
; raft_top_layer_height_mm : 	0.1
; raft_top_layers : 	2
; raft_top_lines_spacing_mm : 	0.8
; raft_xy_margin_mm : 	5
; retract_inwards_perimeter_end : 	True
; retract_mm_per_sec_0 : 	40
; retract_perimeter_safety_distance_mm : 	1.2
; save_layer_subset : 	False
; seam_location_field : 	
; send_gcode_to_arc_weld : 	True
; send_gcode_to_printer : 	True
; shell_flow_multiplier_0 : 	0.95
; shield_brim_num_contours : 	3
; shield_distance_to_part_mm : 	2
; shield_num_contours : 	1
; slicing_algorithm : 	Auto select
; speed_multiplier_0 : 	1
; support_algorithm : 	Wings
; support_anchor_diameter : 	2
; support_extruder : 	0
; support_flow_multiplier : 	1
; support_infills : 	False
; support_interdiction_field : 	
; support_max_bridge_len_mm : 	5
; support_max_connector_height : 	8
; support_min_connector_height : 	2
; support_overhang_overlap_fraction : 	0.5
; support_pillar_cross_length : 	2.5
; support_print_speed_mm_per_sec : 	20
; support_spacing_min_mm : 	4
; support_wing_angle : 	25
; support_wing_min_width : 	4
; support_wing_rib_width : 	2
; thickening_ratio : 	1.25
; tile_size_mm : 	50
; tower_at_location : 	False
; tower_brim_num_contours : 	12
; tower_location_x_mm : 	0
; tower_location_y_mm : 	0
; tower_side_x_mm : 	10
; tower_side_y_mm : 	15
; travel_avoid_top_covers : 	False
; travel_max_length_without_retract : 	20
; travel_speed_mm_per_sec : 	100
; travel_straight : 	False
; use_different_thickness_first_layer : 	True
; vwc_bead_max_width_mm_0 : 	0.7
; vwc_bead_min_width_mm_0 : 	0.3
; vwc_num_beads_0 : 	4
; vwc_overtakes_icesl_0 : 	False
; xy_max_deviation_mm : 	0.05
; xy_mm_per_int : 	0.001
; xy_mm_per_pixels : 	0.1
; z_layer_height_first_layer_mm : 	0.4
; z_layer_height_mm : 	0.2
; z_lift_mm : 	1
; z_movement_speed_mm_per_sec : 	15
; z_offset : 	0
; zigzag_cover_strict_ordering_angle_0 : 	0
G21
G90
M83
M107
SET_VELOCITY_LIMIT ACCEL=1500
; Replace the contents of start.g with desired start gcode
PRINT_START BED=60 EXTRUDER=200 B_LEV=G28 FL_R=94.999998807907
M900 K0


G1 X131.502 Y113.472 Z0.400
; feature skirt
M900 K0
G1 X131.648 Y114.854 E0.115554 F1200
G1 X132.206 Y116.621 E0.154078
G1 X133.212 Y118.206 E0.156099
G1 X134.899 Y119.742 E0.189708
G1 X136.630 Y120.575 E0.159732
G1 X138.779 Y120.977 E0.181789
G1 X150.973 Y120.998 E1.013938
G1 X153.335 Y120.563 E0.199704
G1 X155.448 Y119.497 E0.196789
G1 X156.841 Y118.171 E0.159915
G1 X157.961 Y116.141 E0.192782
G1 X158.471 Y113.759 E0.202553
G1 X158.498 Y86.526 E2.264434
G1 X158.351 Y85.135 E0.116306
G1 X157.893 Y83.597 E0.133435
G1 X156.956 Y82.003 E0.153746
G1 X155.281 Y80.381 E0.193875
G1 X153.566 Y79.500 E0.160319
G1 X150.961 Y79.002 E0.220529
G1 X139.028 Y79.002 E0.992233
G1 X136.790 Y79.391 E0.188881
G1 X134.684 Y80.403 E0.194283
G1 X133.266 Y81.700 E0.159791
G1 X132.097 Y83.723 E0.194278
G1 X131.532 Y86.223 E0.213119
G1 X131.502 Y113.366 E2.256914
G1 X131.502 Y113.472 F6000
G1 X132.002 Y113.472
G1 X132.145 Y114.801 E0.111145 F1200
G1 X132.682 Y116.468 E0.145626
G1 X133.632 Y117.934 E0.145255
G1 X135.233 Y119.370 E0.178827
G1 X136.842 Y120.122 E0.147679
G1 X138.867 Y120.485 E0.171064
G1 X150.974 Y120.498 E1.006701
G1 X153.243 Y120.072 E0.191964
G1 X155.219 Y119.053 E0.184866
G1 X156.492 Y117.813 E0.147768
G1 X157.521 Y115.904 E0.180325
G1 X157.981 Y113.659 E0.190551
G1 X157.998 Y86.526 E2.256118
G1 X157.854 Y85.189 E0.111815
G1 X157.415 Y83.742 E0.125734
G1 X156.527 Y82.260 E0.143657
G1 X154.936 Y80.743 E0.182789
G1 X153.343 Y79.947 E0.148075
G1 X150.961 Y79.502 E0.201491
G1 X139.028 Y79.502 E0.992233
G1 X136.877 Y79.883 E0.181640
G1 X134.905 Y80.852 E0.182699
G1 X133.608 Y82.065 E0.147661
G1 X132.532 Y83.969 E0.181850
G1 X132.021 Y86.329 E0.200782
G1 X132.002 Y113.366 E2.248134
G1 X132.002 Y113.472 F6000
G1 X131.002 Y113.471
G1 X131.151 Y114.907 E0.120045 F1200
G1 X131.729 Y116.772 E0.162353
G1 X132.790 Y118.474 E0.166767
G1 X134.562 Y120.112 E0.200650
G1 X136.413 Y121.026 E0.171652
G1 X138.687 Y121.468 E0.192623
G1 X150.972 Y121.498 E1.021505
G1 X153.426 Y121.055 E0.207349
G1 X155.673 Y119.943 E0.208467
G1 X157.186 Y118.533 E0.171968
G1 X158.399 Y116.383 E0.205263
G1 X158.960 Y113.864 E0.214588
G1 X158.998 Y86.526 E2.273166
G1 X158.848 Y85.082 E0.120715
G1 X158.372 Y83.454 E0.141037
G1 X157.387 Y81.750 E0.163657
G1 X155.629 Y80.022 E0.204971
G1 X153.794 Y79.055 E0.172470
G1 X150.961 Y78.502 E0.240011
G1 X139.028 Y78.502 E0.992233
G1 X136.704 Y78.898 E0.196027
G1 X134.467 Y79.952 E0.205620
G1 X132.929 Y81.331 E0.171763
G1 X131.664 Y83.473 E0.206849
G1 X131.044 Y86.113 E0.225489
G1 X131.002 Y113.364 E2.265944
G1 X131.002 Y113.471 F6000
G1 X132.502 Y113.472
G1 X132.642 Y114.746 E0.106571 F1200
G1 X133.157 Y116.312 E0.137074
G1 X134.049 Y117.658 E0.134267
G1 X135.564 Y118.995 E0.168013
G1 X137.048 Y119.667 E0.135458
G1 X138.951 Y119.992 E0.160526
G1 X150.974 Y119.998 E0.999716
G1 X153.149 Y119.581 E0.184146
G1 X154.986 Y118.611 E0.172735
G1 X156.138 Y117.459 E0.135466
G1 X157.078 Y115.671 E0.167966
G1 X157.490 Y113.563 E0.178598
G1 X157.498 Y86.526 E2.248136
G1 X157.357 Y85.244 E0.107241
G1 X156.937 Y83.890 E0.117878
G1 X156.100 Y82.521 E0.133423
G1 X154.594 Y81.108 E0.171714
G1 X153.125 Y80.397 E0.135702
G1 X150.961 Y80.002 E0.182911
G1 X139.028 Y80.002 E0.992233
G1 X136.966 Y80.375 E0.174238
G1 X135.130 Y81.299 E0.170907
G1 X133.954 Y82.426 E0.135439
G1 X132.970 Y84.210 E0.169409
G1 X132.511 Y86.430 E0.188498
G1 X132.502 Y113.366 E2.239768
G1 X132.502 Y113.472 F6000
G1 X133.002 Y113.472
G1 X133.139 Y114.690 E0.101916 F1200
G1 X133.631 Y116.153 E0.128344
G1 X134.463 Y117.377 E0.123062
G1 X135.892 Y118.617 E0.157320
G1 X137.248 Y119.209 E0.123029
G1 X139.031 Y119.498 E0.150192
G1 X150.974 Y119.498 E0.993064
G1 X153.053 Y119.090 E0.176167
G1 X154.748 Y118.171 E0.160323
G1 X155.780 Y117.110 E0.123072
G1 X156.633 Y115.443 E0.155704
G1 X156.998 Y113.472 E0.166676
G1 X156.998 Y86.526 E2.240569
G1 X156.860 Y85.300 E0.102586
G1 X156.460 Y84.041 E0.109843
G1 X155.676 Y82.786 E0.123043
G1 X154.255 Y81.476 E0.160704
G1 X152.914 Y80.850 E0.123056
G1 X150.961 Y80.502 E0.164951
G1 X139.028 Y80.502 E0.992233
G1 X137.057 Y80.867 E0.166675
G1 X135.359 Y81.743 E0.158872
G1 X134.305 Y82.782 E0.123064
G1 X133.410 Y84.447 E0.157179
G1 X133.002 Y86.526 E0.176167
G1 X133.002 Y113.367 E2.231817
G1 X133.002 Y113.472 F6000
G10
G1 X137.553 Y113.062
G1 X138.553 Y112.972
G1 X138.928 Y112.939
G1 X139.383 Y112.899
G11
G1 X138.749 Y113.918
; feature outer perimeter
SETPA
G1 X139.031 Y113.998 E0.023156 F1400
G1 X150.974 Y113.998 E0.943411
G1 X151.356 Y113.842 E0.032595
G1 X151.498 Y113.472 E0.031306
G1 X151.498 Y86.526 E2.128540
G2 X151.279 Y86.101 I-0.529 J0.004 E0.03882
G1 X150.961 Y86.002 E0.026309
G1 X139.028 Y86.002 E0.942621
G1 X138.658 Y86.144 E0.031305
G1 X138.502 Y86.526 E0.032595
G1 X138.502 Y113.472 E2.128540
G2 X138.651 Y113.810 I0.381 J0.034 E0.03007
G1 X138.749 Y113.918 F6000
G1 X139.383 Y112.899
G10
G1 X139.502 Y87.252
G11
; feature inner perimeter
SETPA
G1 X139.502 Y112.748 E1.913301 F1632
G1 X150.248 Y112.998 E0.806632
G1 X150.498 Y87.252 E1.932153
G1 X139.588 Y87.252 E0.818729
G1 X139.502 Y87.252 F6000
G1 X139.002 Y86.752
G1 X139.002 Y113.248 E1.988344 F1632
G1 X150.748 Y113.498 E0.881657
G1 X150.998 Y86.752 E2.007193
G1 X139.096 Y86.752 E0.893186
G1 X139.002 Y86.752 F6000
G1 X140.459 Y87.252
; feature solid layer
M900 K0
G1 X139.752 Y87.959 E0.078981 F1400
G1 X139.752 Y88.666 F6000
G1 X141.166 Y87.252 E0.157962 F1400
G1 X141.874 Y87.252 F6000
G1 X139.752 Y89.374 E0.237054 F1400
G1 X139.752 Y90.080 F6000
G1 X142.580 Y87.252 E0.315924 F1400
G1 X143.288 Y87.252 F6000
G1 X139.752 Y90.788 E0.395016 F1400
G1 X139.752 Y91.494 F6000
G1 X143.994 Y87.252 E0.473886 F1400
G1 X144.702 Y87.252 F6000
G1 X139.752 Y92.202 E0.552978 F1400
G1 X139.752 Y92.908 F6000
G1 X145.408 Y87.252 E0.631847 F1400
G1 X146.116 Y87.252 F6000
G1 X139.752 Y93.616 E0.710940 F1400
G1 X139.752 Y94.322 F6000
G1 X146.822 Y87.252 E0.789809 F1400
G1 X147.529 Y87.252 F6000
G1 X139.752 Y95.029 E0.868790 F1400
G1 X139.752 Y95.737 F6000
G1 X148.237 Y87.252 E0.947882 F1400
G1 X148.943 Y87.252 F6000
G1 X139.752 Y96.443 E1.026751 F1400
G1 X139.752 Y97.151 F6000
G1 X149.651 Y87.252 E1.105844 F1400
G1 X150.248 Y87.361 F6000
G1 X139.752 Y97.857 E1.172537 F1400
G1 X139.752 Y98.565 F6000
G1 X150.248 Y88.069 E1.172537 F1400
G1 X150.248 Y88.775 F6000
G1 X139.752 Y99.271 E1.172537 F1400
G1 X139.752 Y99.979 F6000
G1 X150.248 Y89.483 E1.172537 F1400
G1 X150.248 Y90.190 F6000
G1 X139.752 Y100.686 E1.172537 F1400
G1 X139.752 Y101.393 F6000
G1 X150.248 Y90.897 E1.172537 F1400
G1 X150.248 Y91.605 F6000
G1 X139.752 Y102.101 E1.172537 F1400
G1 X139.752 Y102.807 F6000
G1 X150.248 Y92.311 E1.172537 F1400
G1 X150.248 Y93.019 F6000
G1 X139.752 Y103.515 E1.172537 F1400
G1 X139.752 Y104.221 F6000
G1 X150.248 Y93.725 E1.172537 F1400
G1 X150.248 Y94.433 F6000
G1 X139.752 Y104.929 E1.172537 F1400
G1 X139.752 Y105.635 F6000
G1 X150.248 Y95.139 E1.172537 F1400
G1 X150.248 Y95.847 F6000
G1 X139.752 Y106.343 E1.172537 F1400
G1 X139.752 Y107.050 F6000
G1 X150.248 Y96.554 E1.172537 F1400
G1 X150.248 Y97.261 F6000
G1 X139.752 Y107.757 E1.172537 F1400
G1 X139.752 Y108.465 F6000
G1 X150.248 Y97.969 E1.172537 F1400
G1 X150.248 Y98.675 F6000
G1 X139.752 Y109.171 E1.172537 F1400
G1 X139.752 Y109.879 F6000
G1 X150.248 Y99.383 E1.172537 F1400
G1 X150.248 Y100.089 F6000
G1 X139.752 Y110.585 E1.172537 F1400
G1 X139.752 Y111.293 F6000
G1 X150.248 Y100.797 E1.172537 F1400
G1 X150.248 Y101.503 F6000
G1 X139.752 Y111.999 E1.172537 F1400
G1 X139.752 Y112.707 F6000
G1 X150.248 Y102.211 E1.172537 F1400
G1 X150.248 Y102.918 F6000
G1 X140.418 Y112.748 E1.098136 F1400
G1 X141.125 Y112.748 F6000
G1 X150.248 Y103.625 E1.019155 F1400
G1 X150.248 Y104.333 F6000
G1 X141.833 Y112.748 E0.940062 F1400
G1 X142.539 Y112.748 F6000
G1 X150.248 Y105.039 E0.861193 F1400
G1 X150.248 Y105.747 F6000
G1 X143.247 Y112.748 E0.782101 F1400
G1 X143.953 Y112.748 F6000
G1 X150.248 Y106.453 E0.703231 F1400
G1 X150.248 Y107.161 F6000
G1 X144.661 Y112.748 E0.624139 F1400
G1 X145.367 Y112.748 F6000
G1 X150.248 Y107.867 E0.545269 F1400
G1 X150.248 Y108.575 F6000
G1 X146.075 Y112.748 E0.466178 F1400
G1 X146.782 Y112.748 F6000
G1 X150.248 Y109.282 E0.387197 F1400
G1 X150.248 Y109.989 F6000
G1 X147.489 Y112.748 E0.308216 F1400
G1 X148.197 Y112.748 F6000
G1 X150.248 Y110.697 E0.229123 F1400
G1 X150.248 Y111.403 F6000
G1 X148.903 Y112.748 E0.150254 F1400
G1 X149.611 Y112.748 F6000
G1 X150.248 Y112.111 E0.071161 F1400
G10
G1 X150.800 Y113.220 F6000
M106 S153
; layer 2, Z = 0.600 Layer Time 0 hours 1 minutes 04 seconds
G1 Z0.600 F900
G11
G1 X151.420 Y114.248 F6000
; feature outer perimeter
SETPA
G1 X151.759 Y113.898 E0.019245
G1 X151.867 Y113.467 E0.017549
G1 X151.849 Y86.360 E1.070630
G1 X151.631 Y85.919 E0.019430
G1 X151.246 Y85.678 E0.017939
G1 X138.928 Y85.638 E0.486520
G2 X138.132 Y86.510 I0.077 J0.870 E0.05087
G1 X138.133 Y113.479 E1.065179
G1 X138.311 Y114.020 E0.022495
G1 X138.731 Y114.318 E0.020340
G1 X150.980 Y114.368 E0.483795
G1 X151.310 Y114.278 E0.013510
G1 X151.420 Y114.248 F6000
G1 X150.800 Y113.220
G10
G1 X150.852 Y86.926
G11
; feature inner perimeter
SETPA
G1 X139.132 Y86.889 E0.439755 F5714
G1 X139.133 Y113.071 E0.982390
G1 X150.617 Y113.367 E0.431041
G1 X150.851 Y87.029 E0.988272
G1 X150.852 Y86.926 F6000
G1 X151.272 Y86.318
