; Postprocessed by [ArcWelder](https://github.com/FormerLurker/ArcWelderLib)
; Copyright(C) 2020 - Brad Hochgesang
; resolution=0.05mm
; path_tolerance=5%
; max_radius=1000000.00mm
; default_xyz_precision=3
; default_e_precision=5

; Build Summary
;   Build time: 0 hours 50 minutes 21 seconds
;   Filament length: 4804.2 mm (4.8 m)
;   Layer height: 0.4 mm
;   Plastic volume: 11557 mm^3 (115.57 cc)
;   Plastic weight: 143.31 g (0.32 lb)
;   Material cost: £2.15
;   Model height: 32.8 mm
;   G-Code generated by IceSL 2.4.2
; 
; <IceSL Nov 23 2021 16:49:35>
; add_brim : 	True
; add_raft : 	False
; auto_slow_down : 	True
; auto_spiralize : 	True
; bed_part_offset_x_mm : 	0
; bed_part_offset_y_mm : 	0
; bed_size_x_mm : 	290
; bed_size_y_mm : 	200
; bed_temp_degree_c : 	60
; brim_distance_to_print_mm : 	5
; brim_num_contours : 	5
; button_cover_density_field_0 : 	
; button_distance_density_field_0 : 	
; button_optimize_z_layer_height_mm : 	
; button_overhangs : 	
; button_spiralize : 	
; cavity_brush : 	0
; cavity_num_iterations : 	5
; cavity_tearing_method : 	Cross
; chamber_temp_degree_c : 	0
; continuous_double_height_0 : 	False
; cover_density_crust_mm_0 : 	1
; cover_density_max_density_0 : 	90
; cover_filter_diameter_mm_0 : 	0
; cover_flow_multiplier_0 : 	1
; cover_print_speed_mm_per_sec : 	30
; cover_thickness_bottom_mm_0 : 	0.4
; cover_thickness_mm_0 : 	1.2
; cover_thickness_top_mm_0 : 	0.6
; cycle_gap_mm : 	-1
; distance_density_crust_mm_0 : 	10
; distance_density_max_density_0 : 	90
; e_movement_speed_mm_per_sec : 	20
; enable_active_temperature_control : 	False
; enable_curved_covers_0 : 	False
; enable_different_top_bottom_covers_0 : 	True
; enable_fan : 	True
; enable_fan_first_layer : 	False
; enable_fit_single_path : 	False
; enable_ironing_0 : 	False
; enable_min_layer_time : 	False
; enable_z_lift : 	False
; enable_zigzag_cover_strict_ordering_0 : 	False
; extruder_0 : 	0
; extruder_count : 	1
; extruder_degrees_per_sec_0 : 	2
; extruder_mix_count_0 : 	1
; extruder_mix_ratios_0 : 	(1)
; extruder_purge_volume_mm3 : 	24
; extruder_swap_retract_length_mm : 	6
; extruder_swap_retract_speed_mm_per_sec : 	20
; extruder_swap_zlift_mm : 	1
; extruder_temp_degree_c_0 : 	200
; fan_speed_percent : 	60
; fan_speed_percent_on_bridges : 	100
; filament_diameter_mm_0 : 	1.75
; filament_priming_mm_0 : 	0.5
; fill_tiny_gaps_0 : 	True
; first_layer_print_speed_mm_per_sec : 	20
; first_layer_saved : 	0
; flow_dampener_e_length_mm : 	3
; flow_dampener_path_length_end_mm : 	1
; flow_dampener_path_length_start_mm : 	1
; flow_multiplier_0 : 	0.95
; force_auto_spiralize : 	False
; force_backtrack_0 : 	False
; function_debug : 	False
; gen_cavity : 	False
; gen_shield : 	False
; gen_supports : 	True
; gen_tower : 	False
; idle_extruder_temp_degree_c_0 : 	100
; infill_angle_0 : 	0
; infill_extruder_0 : 	0
; infill_percentage_0 : 	30
; infill_type_0 : 	Default
; infill_type_fallback_0 : 	Default
; ironing_flow_0 : 	0.1
; ironing_line_spacing_mm_0 : 	0.1
; ironing_nb_passes_0 : 	2
; ironing_only_top_0 : 	True
; ironing_speed_mm_per_sec_0 : 	20
; ironing_thickness_mm_0 : 	0.2
; ironing_type_0 : 	Zigzag
; ironing_z_offset_mm_0 : 	0
; is_support_0 : 	False
; kgon_min_angle_0 : 	45
; kgon_norm_alpha_0 : 	0.5
; kgon_x_shrink_0 : 	1
; klipper_accel : 	1000
; labeling_mm_per_pixels_0 : 	0.01
; labeling_x_offset_mm_0 : 	0
; labeling_y_offset_mm_0 : 	0
; material_mixing_enable_optimizer : 	True
; max_backtrack_len_mm_0 : 	10
; micro_mixing_field : 	
; min_layer_time_method : 	Tower
; min_layer_time_sec : 	3
; mixing_ratio_min_threshold : 	0.07
; mixing_shield_speed_multiplier : 	1.5
; mixing_wipe_length_mm : 	0
; nozzle_diameter_mm_0 : 	0.5
; num_shells_0 : 	2
; number_layers_saved : 	0
; output_machine_code : 	Default
; overhang_points : 	
; pa_tune : 	False
; path_priority_bridge : 	1
; path_priority_infill : 	2
; path_priority_perimeter : 	4
; path_priority_shell : 	3
; path_priority_use_default : 	False
; path_width_speed_adjustment_exponent : 	3
; perimeter_print_speed_mm_per_sec : 	40
; pfoam_min_percentage_0 : 	20
; phasor_infill_iso_0 : 	50
; phasor_infill_phi_0 : 	0
; phasor_infill_theta_0 : 	0
; phasor_seed_0 : 	1
; preserve_contour_orientations : 	True
; preserve_zigzag_strict_ordering_0 : 	False
; priming_mm_per_sec_0 : 	30
; print_perimeter_0 : 	True
; print_speed_microlayers_mm_per_sec : 	200
; print_speed_mm_per_sec : 	50
; printer : 	voron1
; process_thin_features : 	True
; raft_extruder : 	0
; raft_layer_height_mm : 	0.3
; raft_layers : 	3
; raft_lines_spacing_mm : 	1
; raft_offset_mm : 	0.2
; raft_speed_multiplier : 	1
; raft_top_layer_height_mm : 	0.1
; raft_top_layers : 	2
; raft_top_lines_spacing_mm : 	0.8
; raft_xy_margin_mm : 	5
; retract_inwards_perimeter_end : 	True
; retract_mm_per_sec_0 : 	40
; retract_perimeter_safety_distance_mm : 	1.2
; save_layer_subset : 	False
; seam_location_field : 	
; send_gcode_to_arc_weld : 	True
; send_gcode_to_printer : 	True
; shell_flow_multiplier_0 : 	0.95
; shield_brim_num_contours : 	3
; shield_distance_to_part_mm : 	2
; shield_num_contours : 	1
; slicing_algorithm : 	Auto select
; speed_multiplier_0 : 	1
; support_algorithm : 	Wings
; support_anchor_diameter : 	2
; support_extruder : 	0
; support_flow_multiplier : 	1
; support_infills : 	False
; support_interdiction_field : 	
; support_max_bridge_len_mm : 	5
; support_max_connector_height : 	8
; support_min_connector_height : 	2
; support_overhang_overlap_fraction : 	0.5
; support_pillar_cross_length : 	2.5
; support_print_speed_mm_per_sec : 	20
; support_spacing_min_mm : 	4
; support_wing_angle : 	25
; support_wing_min_width : 	4
; support_wing_rib_width : 	2
; thickening_ratio : 	1.25
; tile_size_mm : 	50
; tower_at_location : 	False
; tower_brim_num_contours : 	12
; tower_location_x_mm : 	0
; tower_location_y_mm : 	0
; tower_side_x_mm : 	10
; tower_side_y_mm : 	15
; travel_avoid_top_covers : 	False
; travel_max_length_without_retract : 	20
; travel_speed_mm_per_sec : 	100
; travel_straight : 	False
; use_different_thickness_first_layer : 	True
; vwc_bead_max_width_mm_0 : 	0.7
; vwc_bead_min_width_mm_0 : 	0.3
; vwc_num_beads_0 : 	4
; vwc_overtakes_icesl_0 : 	False
; xy_max_deviation_mm : 	0.05
; xy_mm_per_int : 	0.001
; xy_mm_per_pixels : 	0.1
; z_layer_height_first_layer_mm : 	0.4
; z_layer_height_mm : 	0.2
; z_lift_mm : 	1
; z_movement_speed_mm_per_sec : 	15
; z_offset : 	0
; zigzag_cover_strict_ordering_angle_0 : 	0
G21
G90
M83
M107
SET_VELOCITY_LIMIT ACCEL=1000
; Replace the contents of start.g with desired start gcode
PRINT_START BED=60 EXTRUDER=200 B_LEV=G28 FL_R=94.999998807907
M900 K0


G1 X115.473 Y98.111 Z0.400
; feature skirt
M900 K0
G1 X116.308 Y98.258 E0.070498 F1200
G1 X116.302 Y100.817 E0.212783
G1 X115.911 Y100.822 E0.032515
G1 X114.121 Y101.240 E0.152843
G1 X111.690 Y102.703 E0.235921
G1 X111.202 Y103.139 E0.054414
G1 X109.798 Y105.178 E0.205849
G1 X109.520 Y105.773 E0.054608
G1 X109.011 Y108.170 E0.203756
G1 X108.981 Y112.464 E0.357057
G1 X109.054 Y112.955 E0.041275
G1 X108.981 Y117.464 E0.374974
G1 X109.054 Y117.955 E0.041275
G1 X108.981 Y122.464 E0.374974
G1 X109.424 Y124.849 E0.201705
G1 X109.645 Y125.465 E0.054417
G1 X110.987 Y127.538 E0.205338
G1 X111.407 Y128.000 E0.051917
G1 X113.442 Y129.400 E0.205387
G1 X114.037 Y129.678 E0.054609
G1 X116.434 Y130.187 E0.203755
G1 X117.880 Y130.096 E0.120473
G1 X118.976 Y131.084 E0.122695
G1 X119.973 Y131.760 E0.100161
G1 X121.534 Y132.520 E0.144364
G1 X122.639 Y132.884 E0.096738
G1 X124.320 Y133.185 E0.141999
G2 X126.916 Y133.132 I1.078 J-10.823 E0.21629 F1200
G1 X128.774 Y132.676 E0.159078
G1 X130.529 Y131.886 E0.160031
G1 X132.103 Y130.798 E0.159103
G1 X133.633 Y129.199 E0.184018
G1 X134.329 Y128.205 E0.100899
G1 X135.082 Y126.621 E0.145835
G1 X167.172 Y126.631 E2.668294
G1 X168.813 Y126.449 E0.137287
G1 X170.691 Y125.903 E0.162623
G1 X172.556 Y124.957 E0.173884
G1 X174.199 Y123.674 E0.173335
G1 X175.578 Y122.073 E0.175698
G1 X176.614 Y120.242 E0.174929
G1 X177.196 Y118.591 E0.145561
G1 X177.506 Y116.653 E0.163194
G1 X177.545 Y83.718 E2.738558
G1 X177.370 Y82.031 E0.141028
G2 X176.640 Y79.620 I-10.917 J1.990 E0.20980
G1 X175.925 Y78.257 E0.127980
G2 X171.369 Y74.200 I-9.160 J5.700 E0.51427
G1 X169.946 Y73.638 E0.127217
G1 X169.068 Y73.404 E0.075555
G1 X167.549 Y73.203 E0.127406
G1 X134.984 Y73.179 E2.707792
G1 X134.450 Y72.008 E0.107016
G1 X133.788 Y70.996 E0.100553
G1 X132.651 Y69.708 E0.142857
G1 X131.759 Y68.936 E0.098091
G1 X129.951 Y67.813 E0.176975
G1 X128.113 Y67.121 E0.163303
G1 X125.970 Y66.770 E0.180566
G2 X123.578 Y66.912 I-0.528 J11.318 E0.19953
G1 X121.920 Y67.338 E0.142341
G2 X117.881 Y69.886 I3.294 J9.696 E0.40075
G1 X116.876 Y69.789 E0.083954
G1 X114.356 Y70.225 E0.212652
G1 X113.735 Y70.447 E0.054837
G1 X111.661 Y71.789 E0.205408
G1 X111.199 Y72.209 E0.051917
G1 X109.799 Y74.244 E0.205387
G1 X109.521 Y74.839 E0.054608
G1 X109.012 Y77.236 E0.203756
G1 X108.982 Y81.530 E0.357056
G1 X109.057 Y82.029 E0.041958
G1 X108.986 Y86.530 E0.374306
G1 X109.429 Y88.915 E0.201706
G1 X109.650 Y89.531 E0.054417
G1 X110.583 Y90.986 E0.143721
G1 X110.709 Y92.775 E0.149125
G1 X111.301 Y94.527 E0.153771
G1 X112.349 Y96.086 E0.156198
G1 X113.774 Y97.311 E0.156253
G1 X115.367 Y98.061 E0.146390
G1 X115.473 Y98.111 F6000
G1 X115.807 Y98.677
G1 X115.803 Y100.334 E0.137780 F1200
G1 X114.007 Y100.753 E0.153349
G1 X111.432 Y102.275 E0.248717
G1 X110.869 Y102.766 E0.062115
G1 X109.386 Y104.894 E0.215673
G1 X109.067 Y105.561 E0.061478
G1 X108.522 Y108.066 E0.213164
G1 X108.481 Y112.461 E0.365461
G1 X108.553 Y112.991 E0.044474
G1 X108.481 Y117.456 E0.371315
G1 X108.553 Y117.991 E0.044886
G1 X108.481 Y122.456 E0.371315
G1 X108.932 Y124.940 E0.209922
G1 X109.174 Y125.634 E0.061114
G1 X110.567 Y127.810 E0.214834
G1 X111.037 Y128.336 E0.058654
G1 X113.159 Y129.812 E0.214931
G1 X113.825 Y130.131 E0.061403
G1 X116.330 Y130.676 E0.213165
G1 X117.702 Y130.608 E0.114222
G2 X119.692 Y132.174 I6.805 J-6.601 E0.21103 F1200
G1 X121.315 Y132.970 E0.150310
G1 X122.483 Y133.359 E0.102364
G1 X124.232 Y133.677 E0.147814
G2 X126.953 Y133.631 I1.170 J-11.317 E0.22669
G1 X128.893 Y133.162 E0.165959
G1 X130.734 Y132.342 E0.167577
G1 X132.387 Y131.209 E0.166635
G1 X133.994 Y129.545 E0.192352
G1 X134.739 Y128.492 E0.107255
G1 X135.398 Y127.121 E0.126485
G1 X167.172 Y127.131 E2.642019
G1 X168.868 Y126.946 E0.141859
G1 X170.831 Y126.383 E0.169805
G1 X172.782 Y125.403 E0.181542
G1 X174.507 Y124.068 E0.181372
G1 X175.957 Y122.399 E0.183837
G1 X177.049 Y120.488 E0.183014
G1 X177.668 Y118.757 E0.152859
G1 X178.000 Y116.732 E0.170628
G1 X178.045 Y83.719 E2.745045
G1 X177.867 Y81.979 E0.145436
G2 X177.108 Y79.445 I-11.398 J2.033 E0.22031
G1 X176.368 Y78.025 E0.133145
G2 X171.609 Y73.761 I-9.601 J5.928 E0.53868
G1 X170.130 Y73.173 E0.132342
G1 X169.197 Y72.921 E0.080359
G1 X167.615 Y72.707 E0.132742
G1 X135.305 Y72.679 E2.686589
G1 X134.905 Y71.801 E0.080226
G1 X134.206 Y70.722 E0.106900
G1 X133.026 Y69.377 E0.148777
G1 X132.086 Y68.558 E0.103667
G1 X130.215 Y67.388 E0.183488
G1 X128.289 Y66.653 E0.171412
G1 X125.966 Y66.270 E0.195766
G2 X123.521 Y66.415 I-0.524 J11.857 E0.20393
G1 X121.796 Y66.854 E0.148006
G1 X120.639 Y67.318 E0.103653
G1 X119.314 Y68.051 E0.125910
G2 X117.708 Y69.367 I4.339 J6.933 E0.17299
G1 X116.924 Y69.291 E0.065496
G1 X114.271 Y69.732 E0.223625
G1 X113.567 Y69.976 E0.061954
G1 X111.389 Y71.369 E0.214974
G1 X110.863 Y71.839 E0.058654
G1 X109.387 Y73.961 E0.214932
G1 X109.068 Y74.627 E0.061403
G1 X108.523 Y77.132 E0.213164
G1 X108.482 Y81.527 E0.365462
G1 X108.556 Y82.059 E0.044662
G1 X108.486 Y86.522 E0.371146
G1 X108.937 Y89.006 E0.209922
G1 X109.179 Y89.700 E0.061114
G1 X110.093 Y91.148 E0.142381
G1 X110.210 Y92.810 E0.138538
G1 X110.827 Y94.687 E0.164289
G1 X111.934 Y96.365 E0.167154
G1 X113.448 Y97.690 E0.167292
G1 X115.260 Y98.563 E0.167243
G1 X115.670 Y98.648 E0.034845
G1 X115.807 Y98.677 F6000
G1 X116.801 Y101.310
G1 X115.918 Y101.322 E0.073428 F1200
G1 X114.238 Y101.726 E0.143675
G1 X111.952 Y103.129 E0.223026
G1 X111.540 Y103.507 E0.046492
G1 X110.211 Y105.459 E0.196357
G1 X109.976 Y105.979 E0.047449
G1 X109.501 Y108.271 E0.194630
G1 X109.481 Y112.466 E0.348820
G1 X109.562 Y112.964 E0.041953
G1 X109.501 Y113.273 E0.026188
G1 X109.481 Y117.466 E0.348654
G1 X109.562 Y117.964 E0.041953
G1 X109.501 Y118.273 E0.026188
G1 X109.481 Y122.466 E0.348654
G1 X109.915 Y124.756 E0.193803
G1 X110.114 Y125.290 E0.047386
G1 X111.405 Y127.264 E0.196125
G1 X111.773 Y127.660 E0.044950
G1 X113.723 Y128.987 E0.196126
G1 X114.243 Y129.222 E0.047448
G1 X116.535 Y129.697 E0.194631
G1 X118.055 Y129.581 E0.126756
G1 X119.311 Y130.713 E0.140594
G1 X120.252 Y131.345 E0.094254
G1 X121.752 Y132.070 E0.138530
G1 X122.794 Y132.409 E0.091112
G1 X124.407 Y132.693 E0.136184
G2 X126.877 Y132.633 I0.981 J-10.475 E0.20580 F1200
G1 X128.653 Y132.191 E0.152179
G1 X130.322 Y131.431 E0.152490
G1 X131.817 Y130.388 E0.151572
G1 X133.270 Y128.855 E0.175629
G1 X133.918 Y127.920 E0.094591
G1 X134.765 Y126.121 E0.165337
G1 X167.172 Y126.131 E2.694653
G1 X168.757 Y125.952 E0.132632
G1 X170.549 Y125.423 E0.155361
G1 X172.328 Y124.512 E0.166192
G1 X173.889 Y123.281 E0.165302
G1 X175.198 Y121.748 E0.167617
G1 X176.178 Y119.998 E0.166776
G1 X176.724 Y118.427 E0.138293
G1 X177.012 Y116.576 E0.155763
G1 X177.045 Y83.717 E2.732239
G1 X176.873 Y82.083 E0.136618
G2 X176.172 Y79.797 I-10.460 J1.957 E0.19913
G1 X175.483 Y78.490 E0.122853
G2 X171.130 Y74.639 I-8.718 J5.468 E0.48992
G1 X169.763 Y74.103 E0.122092
G1 X168.941 Y73.888 E0.070648
G1 X167.485 Y73.699 E0.122083
G1 X134.662 Y73.679 E2.729244
G1 X133.995 Y72.215 E0.133772
G1 X133.371 Y71.272 E0.094023
G1 X132.277 Y70.040 E0.137000
G1 X131.433 Y69.316 E0.092463
G1 X129.688 Y68.238 E0.170551
G1 X127.939 Y67.590 E0.155091
G1 X125.974 Y67.270 E0.165542
G2 X123.637 Y67.409 I-0.533 J10.748 E0.19495
G1 X122.046 Y67.822 E0.136677
G2 X118.056 Y70.406 I3.251 J9.392 E0.39902
G1 X116.828 Y70.287 E0.102587
G1 X114.445 Y70.717 E0.201347
G1 X113.909 Y70.916 E0.047542
G1 X111.935 Y72.207 E0.196125
G1 X111.539 Y72.575 E0.044950
G1 X110.212 Y74.525 E0.196126
G1 X109.977 Y75.045 E0.047449
G1 X109.502 Y77.337 E0.194630
G1 X109.482 Y81.532 E0.348820
G1 X109.565 Y82.040 E0.042801
G1 X109.506 Y82.339 E0.025341
G1 X109.486 Y86.532 E0.348653
G1 X109.920 Y88.822 E0.193804
G1 X110.119 Y89.356 E0.047386
G1 X111.073 Y90.822 E0.145436
G1 X111.208 Y92.740 E0.159877
G1 X111.773 Y94.363 E0.142897
G1 X112.761 Y95.803 E0.145210
G1 X114.096 Y96.929 E0.145218
G1 X115.682 Y97.657 E0.145106
G1 X116.809 Y97.829 E0.094795
G1 X116.801 Y101.201 E0.280402
G1 X116.801 Y101.310 F6000
G1 X117.300 Y101.804
G1 X115.925 Y101.822 E0.114342 F1200
G1 X114.358 Y102.211 E0.134251
G1 X112.218 Y103.553 E0.210036
G1 X111.884 Y103.870 E0.038289
G1 X110.626 Y105.738 E0.187264
G1 X110.434 Y106.179 E0.039994
G1 X109.991 Y108.370 E0.185869
G1 X109.981 Y112.467 E0.340668
G1 X110.071 Y112.967 E0.042243
G1 X109.991 Y113.370 E0.034163
G1 X109.981 Y117.467 E0.340668
G1 X110.071 Y117.967 E0.042243
G1 X109.991 Y118.370 E0.034163
G1 X109.981 Y122.467 E0.340668
G1 X110.406 Y124.661 E0.185823
G1 X110.580 Y125.109 E0.039963
G1 X111.822 Y126.988 E0.187286
G1 X112.134 Y127.314 E0.037521
G1 X114.002 Y128.572 E0.187264
G1 X114.443 Y128.764 E0.039994
G1 X116.634 Y129.207 E0.185869
G1 X118.227 Y129.063 E0.132998
G1 X119.646 Y130.342 E0.158846
G1 X120.529 Y130.929 E0.088165
G1 X121.968 Y131.619 E0.132698
G1 X122.947 Y131.933 E0.085488
G1 X124.492 Y132.200 E0.130372
G2 X126.837 Y132.135 I0.892 J-10.137 E0.19538 F1200
G1 X128.530 Y131.706 E0.145223
G1 X130.113 Y130.977 E0.144914
G1 X131.529 Y129.979 E0.144045
G1 X132.906 Y128.513 E0.167240
G1 X133.505 Y127.638 E0.088172
G1 X134.231 Y126.148 E0.137818
G1 X134.403 Y125.621 E0.046095
G1 X167.172 Y125.631 E2.724753
G1 X168.700 Y125.455 E0.127894
G1 X170.406 Y124.944 E0.148082
G1 X172.098 Y124.068 E0.158428
G1 X173.578 Y122.890 E0.157286
G1 X174.816 Y121.425 E0.159486
G1 X175.741 Y119.756 E0.158667
G1 X176.251 Y118.265 E0.131029
G1 X176.518 Y116.501 E0.148348
G1 X176.545 Y83.717 E2.726002
